src/pos-icons/account-music-outline.svg

<svg height="24" viewBox="0 0 24 24" width="24" xmlns="http://www.w3.org/2000/svg"><path d="m11 4a4 4 0 0 1 4 4 4 4 0 0 1 -4 4 4 4 0 0 1 -4-4 4 4 0 0 1 4-4m0 2a2 2 0 0 0 -2 2 2 2 0 0 0 2 2 2 2 0 0 0 2-2 2 2 0 0 0 -2-2m0 7c1.1 0 2.66.23 4.11.69-.61.38-1.11.91-1.5 1.54-.82-.2-1.72-.33-2.61-.33-2.97 0-6.1 1.46-6.1 2.1v1.1h8.14c.09.7.34 1.34.72 1.9h-10.76v-3c0-2.66 5.33-4 8-4m7.5-3h1.5 2v2h-2v5.5a2.5 2.5 0 0 1 -2.5 2.5 2.5 2.5 0 0 1 -2.5-2.5 2.5 2.5 0 0 1 2.5-2.5c.36 0 .69.07 1 .21z"/></svg>

<?xml version="1.0" encoding="UTF-8"?><!DOCTYPE svg PUBLIC "-//W3C//DTD SVG 1.1//EN" "http://www.w3.org/Graphics/SVG/1.1/DTD/svg11.dtd"><svg xmlns="http://www.w3.org/2000/svg" xmlns:xlink="http://www.w3.org/1999/xlink" version="1.1" id="mdi-account-music-outline" width="24" height="24" viewBox="0 0 24 24"><path d="M11,4A4,4 0 0,1 15,8A4,4 0 0,1 11,12A4,4 0 0,1 7,8A4,4 0 0,1 11,4M11,6A2,2 0 0,0 9,8A2,2 0 0,0 11,10A2,2 0 0,0 13,8A2,2 0 0,0 11,6M11,13C12.1,13 13.66,13.23 15.11,13.69C14.5,14.07 14,14.6 13.61,15.23C12.79,15.03 11.89,14.9 11,14.9C8.03,14.9 4.9,16.36 4.9,17V18.1H13.04C13.13,18.8 13.38,19.44 13.76,20H3V17C3,14.34 8.33,13 11,13M18.5,10H20L22,10V12H20V17.5A2.5,2.5 0 0,1 17.5,20A2.5,2.5 0 0,1 15,17.5A2.5,2.5 0 0,1 17.5,15C17.86,15 18.19,15.07 18.5,15.21V10Z" /></svg>
